assets/images/icons/src/check-square.svg

<?xml version="1.0" encoding="utf-8"?>
<!-- Generated by IcoMoon.io -->
<!DOCTYPE svg PUBLIC "-//W3C//DTD SVG 1.1//EN" "http://www.w3.org/Graphics/SVG/1.1/DTD/svg11.dtd">
<svg version="1.1" xmlns="http://www.w3.org/2000/svg" xmlns:xlink="http://www.w3.org/1999/xlink" width="12" height="14" viewBox="0 0 12 14">
<path fill="#444444" d="M5.352 10.148l4.797-4.797q0.148-0.148 0.148-0.352t-0.148-0.352l-0.797-0.797q-0.148-0.148-0.352-0.148t-0.352 0.148l-3.648 3.648-1.648-1.648q-0.148-0.148-0.352-0.148t-0.352 0.148l-0.797 0.797q-0.148 0.148-0.148 0.352t0.148 0.352l2.797 2.797q0.148 0.148 0.352 0.148t0.352-0.148zM12 3.25v7.5q0 0.93-0.66 1.59t-1.59 0.66h-7.5q-0.93 0-1.59-0.66t-0.66-1.59v-7.5q0-0.93 0.66-1.59t1.59-0.66h7.5q0.93 0 1.59 0.66t0.66 1.59z"></path>
</svg>

<svg xmlns="http://www.w3.org/2000/svg" width="12" height="14" viewBox="0 0 12 14"><path fill="#444" d="M5.352 10.148l4.797-4.797q.148-.148.148-.352t-.148-.352l-.797-.797Q9.204 3.702 9 3.702t-.352.148L5 7.498 3.352 5.85Q3.204 5.702 3 5.702t-.352.148l-.797.797q-.148.148-.148.352t.148.352l2.797 2.797q.148.148.352.148t.352-.148zM12 3.25v7.5q0 .93-.66 1.59T9.75 13h-7.5q-.93 0-1.59-.66T0 10.75v-7.5q0-.93.66-1.59T2.25 1h7.5q.93 0 1.59.66T12 3.25z"/></svg>
